X: 162
T: Little Molly O
N:"With expression"
B:O'Neill's 162
Z:Transcribed by henrik.norbeck@mailbox.swipnet.se
M:3/4
L:1/8
K:G
d3 (e/d/) (B/A/B/d/)|e2 (g<e) (d<B)|(TA3 G) (B/4A/4G3/2)|G4||
d(3d/e/f/|g2 (gb) (ag)|f2 (gf) (ed)|(e3 g) (g/e/d/B/)|">"d4- d(3d/e/f/|
g2 (gb) (ag)|f2 f2 (ed)|">"e3 (dBd)|(">"e4 d)(3d/e/f/|
(g>f) (e3 d)|e2 (g<e) (d<B)|(TA3 G) (B/4A/4G3/2)|G4||


